actions/48/system-shutdown.svg

<?xml version="1.0" encoding="UTF-8" standalone="no"?>
<!-- Created with Inkscape (http://www.inkscape.org/) -->

<svg
   xmlns:svg="http://www.w3.org/2000/svg"
   xmlns="http://www.w3.org/2000/svg"
   xmlns:xlink="http://www.w3.org/1999/xlink"
   version="1.1"
   width="48"
   height="48"
   id="svg2495">
  <defs
     id="defs2497">
    <linearGradient
       id="linearGradient8838-795">
      <stop
         id="stop2737"
         style="stop-color:black;stop-opacity:1"
         offset="0" />
      <stop
         id="stop2739"
         style="stop-color:black;stop-opacity:0"
         offset="1" />
    </linearGradient>
    <radialGradient
       cx="62.625"
       cy="4.625"
       r="10.625"
       fx="62.625"
       fy="4.625"
       id="radialGradient2612-507"
       xlink:href="#linearGradient8838-795"
       gradientUnits="userSpaceOnUse"
       gradientTransform="matrix(1,0,0,0.341176,0,3.047059)" />
    <linearGradient
       id="linearGradient3195">
      <stop
         id="stop3197"
         style="stop-color:#7c7c7c;stop-opacity:1"
         offset="0" />
      <stop
         id="stop3199"
         style="stop-color:#a4a4a4;stop-opacity:1"
         offset="1" />
    </linearGradient>
    <linearGradient
       x1="15.046636"
       y1="44.787998"
       x2="15.046636"
       y2="3.8851264"
       id="linearGradient3927-117-924-259-771-518-833"
       xlink:href="#linearGradient3195"
       gradientUnits="userSpaceOnUse" />
    <linearGradient
       id="linearGradient3203">
      <stop
         id="stop3205"
         style="stop-color:#a6a6a6;stop-opacity:1"
         offset="0" />
      <stop
         id="stop3207"
         style="stop-color:#cecece;stop-opacity:1"
         offset="1" />
    </linearGradient>
    <linearGradient
       x1="13.312215"
       y1="44.787048"
       x2="13.312215"
       y2="13.304021"
       id="linearGradient3380"
       xlink:href="#linearGradient3203"
       gradientUnits="userSpaceOnUse" />
    <linearGradient
       id="linearGradient4873-625-158-888-767">
      <stop
         id="stop4258"
         style="stop-color:white;stop-opacity:1"
         offset="0" />
      <stop
         id="stop4260"
         style="stop-color:white;stop-opacity:0"
         offset="1" />
    </linearGradient>
    <linearGradient
       x1="63.397362"
       y1="-9.3832779"
       x2="63.397362"
       y2="7.4434662"
       id="linearGradient2704-818-430-452-459"
       xlink:href="#linearGradient4873-625-158-888-767"
       gradientUnits="userSpaceOnUse"
       gradientTransform="matrix(2.149872,0,0,2.149872,-110.11554,31.935342)" />
  </defs>
  <g
     id="layer1">
    <path
       d="m 73.25,4.625 a 10.625,3.625 0 1 1 -21.25,0 10.625,3.625 0 1 1 21.25,0 z"
       transform="matrix(2.149872,0,0,2.5636643,-111.38573,26.849769)"
       id="path8836"
       style="opacity:0.56043958;fill:url(#radialGradient2612-507);fill-opacity:1;fill-rule:evenodd;stroke:none;stroke-width:0.99999988;marker:none;visibility:visible;display:inline;overflow:visible" />
    <path
       d="m 43.504933,24.386797 c 0,10.989786 -8.909149,19.898833 -19.897424,19.898833 -10.989282,0 -19.8979255,-8.909148 -19.8979255,-19.898833 0,-10.989282 8.9086435,-19.8974234 19.8979255,-19.8974234 10.988275,0 19.897424,8.9081414 19.897424,19.8974234 l 0,0 z"
       id="path6495"
       style="fill:url(#linearGradient3380);fill-opacity:1;fill-rule:nonzero;stroke:url(#linearGradient3927-117-924-259-771-518-833);stroke-width:1;stroke-miterlimit:4;stroke-dasharray:none" />
    <path
       d="m 42.409081,24.386829 c 0,10.384468 -8.41843,18.802802 -18.801469,18.802802 -10.383989,0 -18.8019442,-8.41843 -18.8019442,-18.802802 0,-10.383988 8.4179552,-18.8014678 18.8019442,-18.8014678 10.383039,0 18.801469,8.4174798 18.801469,18.8014678 l 0,0 z"
       id="path8655"
       style="opacity:0.52747258;fill:none;stroke:url(#linearGradient2704-818-430-452-459);stroke-width:1;stroke-miterlimit:4;stroke-opacity:1;stroke-dasharray:none" />
    <g
       transform="matrix(0.9913059,0,0,0.9913059,0.2190045,-0.3984439)"
       id="g5714">
      <path
         d="m 17.938954,16.054151 c -9.3736941,5.111353 -5.134935,19.758342 5.581455,19.758342 10.604759,0 15.35764,-13.886024 5.581451,-19.758342 m -5.508365,6.287205 0,-9.937765"
         id="path2413"
         style="fill:none;stroke:#8d8d8d;stroke-width:4.83666706;stroke-linecap:round;stroke-linejoin:miter;stroke-miterlimit:0;stroke-opacity:0.48878922;stroke-dasharray:none;stroke-dashoffset:0;marker:none;visibility:visible;display:inline;overflow:visible" />
      <g
         transform="matrix(1.3405638,0,0,1.3405638,-7.9097321,-5.1350291)"
         id="g2419"
         style="fill:none;stroke:white;stroke-width:2.18480515;stroke-linecap:round;stroke-miterlimit:0;stroke-opacity:1;stroke-dasharray:none">
        <path
           d="m 19.281951,15.80617 c -6.992352,3.812838 -3.830429,14.73883 4.163513,14.73883 7.910671,0 11.456106,-10.358346 4.163511,-14.73883"
           id="path3339"
           style="fill:none;stroke:white;stroke-width:2.18480515;stroke-linecap:round;stroke-linejoin:miter;stroke-miterlimit:0;stroke-opacity:1;stroke-dasharray:none;stroke-dashoffset:0;marker:none;visibility:visible;display:inline;overflow:visible" />
        <path
           d="m 23.499983,20.496141 0,-7.413124"
           id="path3341"
           style="fill:none;stroke:white;stroke-width:2.18480515;stroke-linecap:round;stroke-linejoin:miter;stroke-miterlimit:0;stroke-opacity:1;stroke-dasharray:none;stroke-dashoffset:0;marker:none;visibility:visible;display:inline;overflow:visible" />
      </g>
    </g>
  </g>
</svg>

<?xml version="1.0" encoding="UTF-8" standalone="no"?>
<!-- Created with Inkscape (http://www.inkscape.org/) -->
<svg
   xmlns:dc="http://purl.org/dc/elements/1.1/"
   xmlns:cc="http://creativecommons.org/ns#"
   xmlns:rdf="http://www.w3.org/1999/02/22-rdf-syntax-ns#"
   xmlns:svg="http://www.w3.org/2000/svg"
   xmlns="http://www.w3.org/2000/svg"
   xmlns:xlink="http://www.w3.org/1999/xlink"
   xmlns:sodipodi="http://sodipodi.sourceforge.net/DTD/sodipodi-0.dtd"
   xmlns:inkscape="http://www.inkscape.org/namespaces/inkscape"
   width="48px"
   height="48px"
   id="svg2495"
   sodipodi:version="0.32"
   inkscape:version="0.46"
   sodipodi:docname="halt.svg"
   inkscape:output_extension="org.inkscape.output.svg.inkscape">
  <defs
     id="defs2497">
    <linearGradient
       id="linearGradient8838-795"
       inkscape:collect="always">
      <stop
         id="stop2737"
         offset="0"
         style="stop-color:#000000;stop-opacity:1;" />
      <stop
         id="stop2739"
         offset="1"
         style="stop-color:#000000;stop-opacity:0;" />
    </linearGradient>
    <radialGradient
       inkscape:collect="always"
       xlink:href="#linearGradient8838-795"
       id="radialGradient2612-507"
       gradientUnits="userSpaceOnUse"
       gradientTransform="matrix(1,0,0,0.341176,0,3.047059)"
       cx="62.625"
       cy="4.625"
       fx="62.625"
       fy="4.625"
       r="10.625" />
    <linearGradient
       id="linearGradient3195">
      <stop
         id="stop3197"
         offset="0"
         style="stop-color:#7c7c7c;stop-opacity:1;" />
      <stop
         id="stop3199"
         offset="1"
         style="stop-color:#a4a4a4;stop-opacity:1;" />
    </linearGradient>
    <linearGradient
       inkscape:collect="always"
       xlink:href="#linearGradient3195"
       id="linearGradient3927-117-924-259-771-518-833"
       x1="15.046636"
       y1="44.787998"
       x2="15.046636"
       y2="3.8851264"
       gradientUnits="userSpaceOnUse" />
    <linearGradient
       id="linearGradient3203">
      <stop
         id="stop3205"
         offset="0"
         style="stop-color:#a6a6a6;stop-opacity:1" />
      <stop
         id="stop3207"
         offset="1"
         style="stop-color:#cecece;stop-opacity:1;" />
    </linearGradient>
    <linearGradient
       inkscape:collect="always"
       xlink:href="#linearGradient3203"
       id="linearGradient3380"
       x1="13.312215"
       y1="44.787048"
       x2="13.312215"
       y2="13.304021"
       gradientUnits="userSpaceOnUse" />
    <linearGradient
       inkscape:collect="always"
       id="linearGradient4873-625-158-888-767">
      <stop
         style="stop-color:#ffffff;stop-opacity:1;"
         offset="0"
         id="stop4258" />
      <stop
         style="stop-color:#ffffff;stop-opacity:0;"
         offset="1"
         id="stop4260" />
    </linearGradient>
    <linearGradient
       inkscape:collect="always"
       xlink:href="#linearGradient4873-625-158-888-767"
       id="linearGradient2704-818-430-452-459"
       gradientUnits="userSpaceOnUse"
       gradientTransform="matrix(2.149872,0,0,2.149872,-110.11554,31.935342)"
       x1="63.397362"
       y1="-9.3832779"
       x2="63.397362"
       y2="7.4434662" />
  </defs>
  <sodipodi:namedview
     id="base"
     pagecolor="#ffffff"
     bordercolor="#666666"
     borderopacity="1.0"
     inkscape:pageopacity="0.0"
     inkscape:pageshadow="2"
     inkscape:zoom="7"
     inkscape:cx="24"
     inkscape:cy="24"
     inkscape:current-layer="layer1"
     showgrid="true"
     inkscape:grid-bbox="true"
     inkscape:document-units="px"
     inkscape:window-width="640"
     inkscape:window-height="720"
     inkscape:window-x="800"
     inkscape:window-y="24" />
  <metadata
     id="metadata2500">
    <rdf:RDF>
      <cc:Work
         rdf:about="">
        <dc:format>image/svg+xml</dc:format>
        <dc:type
           rdf:resource="http://purl.org/dc/dcmitype/StillImage" />
      </cc:Work>
    </rdf:RDF>
  </metadata>
  <g
     id="layer1"
     inkscape:label="Layer 1"
     inkscape:groupmode="layer">
    <path
       sodipodi:type="arc"
       style="opacity:0.56043958000000005;fill:url(#radialGradient2612-507);fill-opacity:1;fill-rule:evenodd;stroke:none;stroke-width:0.99999987999999995;stroke-linecap:butt;stroke-linejoin:round;marker:none;marker-start:none;marker-mid:none;marker-end:none;stroke-miterlimit:4;stroke-dasharray:none;stroke-dashoffset:0;stroke-opacity:1;visibility:visible;display:inline;overflow:visible"
       id="path8836"
       sodipodi:cx="62.625"
       sodipodi:cy="4.625"
       sodipodi:rx="10.625"
       sodipodi:ry="3.625"
       d="M 73.25,4.625 A 10.625,3.625 0 1 1 52,4.625 A 10.625,3.625 0 1 1 73.25,4.625 z"
       transform="matrix(2.149872,0,0,2.5636643,-111.38573,26.849769)" />
    <path
       style="fill:url(#linearGradient3380);fill-opacity:1;fill-rule:nonzero;stroke:url(#linearGradient3927-117-924-259-771-518-833);stroke-width:1;stroke-miterlimit:4;stroke-dasharray:none"
       d="M 43.504933,24.386797 C 43.504933,35.376583 34.595784,44.28563 23.607509,44.28563 C 12.618227,44.28563 3.7095835,35.376482 3.7095835,24.386797 C 3.7095835,13.397515 12.618227,4.4893736 23.607509,4.4893736 C 34.595784,4.4893736 43.504933,13.397515 43.504933,24.386797 L 43.504933,24.386797 z"
       id="path6495" />
    <path
       id="path8655"
       d="M 42.409081,24.386829 C 42.409081,34.771297 33.990651,43.189631 23.607612,43.189631 C 13.223623,43.189631 4.8056678,34.771201 4.8056678,24.386829 C 4.8056678,14.002841 13.223623,5.5853612 23.607612,5.5853612 C 33.990651,5.5853612 42.409081,14.002841 42.409081,24.386829 L 42.409081,24.386829 z"
       style="opacity:0.52747257999999997;fill:none;fill-opacity:1;fill-rule:nonzero;stroke:url(#linearGradient2704-818-430-452-459);stroke-width:1;stroke-miterlimit:4;stroke-dasharray:none;stroke-opacity:1" />
    <g
       id="g5714"
       transform="matrix(0.9913059,0,0,0.9913059,0.2190045,-0.3984439)">
      <path
         d="M 17.938954,16.054151 C 8.5652599,21.165504 12.804019,35.812493 23.520409,35.812493 C 34.125168,35.812493 38.878049,21.926469 29.10186,16.054151 M 23.593495,22.341356 L 23.593495,12.403591"
         style="fill:none;fill-opacity:1;fill-rule:evenodd;stroke:#8d8d8d;stroke-width:4.83666706;stroke-linecap:round;stroke-linejoin:miter;marker:none;marker-start:none;marker-mid:none;marker-end:none;stroke-miterlimit:0;stroke-dasharray:none;stroke-dashoffset:0;stroke-opacity:0.48878922;visibility:visible;display:inline;overflow:visible"
         id="path2413" />
      <g
         style="fill:none;fill-opacity:1;stroke:#ffffff;stroke-width:2.18480515;stroke-linecap:round;stroke-miterlimit:0;stroke-dasharray:none;stroke-opacity:1"
         transform="matrix(1.3405638,0,0,1.3405638,-7.9097321,-5.1350291)"
         id="g2419">
        <path
           sodipodi:nodetypes="czs"
           id="path3339"
           d="M 19.281951,15.80617 C 12.289599,19.619008 15.451522,30.545 23.445464,30.545 C 31.356135,30.545 34.90157,20.186654 27.608975,15.80617"
           style="fill:none;fill-opacity:1;fill-rule:evenodd;stroke:#ffffff;stroke-width:2.18480515;stroke-linecap:round;stroke-linejoin:miter;marker:none;marker-start:none;marker-mid:none;marker-end:none;stroke-miterlimit:0;stroke-dasharray:none;stroke-dashoffset:0;stroke-opacity:1;visibility:visible;display:inline;overflow:visible" />
        <path
           id="path3341"
           d="M 23.499983,20.496141 L 23.499983,13.083017"
           style="fill:none;fill-opacity:1;fill-rule:evenodd;stroke:#ffffff;stroke-width:2.18480515;stroke-linecap:round;stroke-linejoin:miter;marker:none;marker-start:none;marker-mid:none;marker-end:none;stroke-miterlimit:0;stroke-dasharray:none;stroke-dashoffset:0;stroke-opacity:1;visibility:visible;display:inline;overflow:visible" />
      </g>
    </g>
  </g>
</svg>
